X: 0742
T: LADY CARMICHAEL'S STRATHSPEY
B: Oliver Ditson "The Boston Collection of Instrumental Music" 1910 p.74 #2
F: http://conquest.imslp.info/files/imglnks/usimg/8/8f/IMSLP175643-PMLP309456-bostoncollection00bost_bw.pdf
%: 2012 John Chambers <jc:trillian.mit.edu>
M: 4/4
L: 1/16
K: D
G2 |\
FGA2 TA3d c3de3f | g3e f2ed ce3 e3f | FGA2 TA2d2 Tc3dTe3f | g3ef3d Ad3d3A |
FGA2 TA3d c3de3f | g3e f2ed ce3e3f | FGA2 A3d c3de3f | gfed c3a f2d2d2 |]
fg |\
a3dfa3 d3afd3 | g3e gfed c2e2Te2 fg | a3df3a  Td3afd3 | g3eA3g fd3~d2 fg |
a3dfa3 d3afd3 | g3e gfed ce3e2 fg | f3dB3d A3dF3d | (Bcd2) (cde2) f2d2d2 |]

%%sep 1 1 500
%%sep 1 1 500
